src/assets/icon.svg

<?xml version="1.0"?>
<svg viewBox="0 0 1260 1260" xmlns="http://www.w3.org/2000/svg">
    <path d="M0,90 Q0,0 90,0 L1170,0 Q1260,0 1260,90 L1260,900 Q1260,990 1170,990 L360,990 L0,1260 Z" fill="#323A46"/>
    <g fill="#CD2C24">
        <path d="M0,90 Q0,0 90,0 L180,0 L180,270 A90,90 0 1 1 0,270 Z
            M360,0 H540 V270 A90,90 0 1 1 360,270 Z
            M720,0 H900 V270 A90,90 0 1 1 720,270 Z
            M1080,0 H1170 Q1260,0 1260,90 L1260,270 A90,90 0 1 1 1080,270 Z"/>
    </g>
    <g fill="#F5E5C0">
        <path d="M180,0 H360 V270 A90,90 0 1 1 180,270 Z
            M540,0 H720 V270 A90,90 0 1 1 540,270 Z
            M900,0 H1080 V270 A90,90 0 1 1 900,270 Z"/>
    </g>
    <line x1="130" y1="923.5" x2="130" y2="532" fill="none" stroke="#FFF" stroke-linecap="round" stroke-width="55"/>
    <circle cx="260.5" cy="662.5" r="130.5" fill="none" stroke="#FFF" stroke-linecap="round" stroke-width="55"/>
    <circle cx="630" cy="662" r="131" fill="none" stroke="#FFF" stroke-linecap="round" stroke-width="55" />
    <path d="m1131,565.8c-21.75,-13.05 -65.25,-34.8 -130.5,-34.8q-130.5,0 -130.5,65.25t130.5,65.25t130.5,65.25t-130.5,65.25c-65.25,0 -108.75,-21.75 -130.5,-34.8" fill="#FFF" fill-opacity="0" stroke="#FFF" stroke-linecap="round" stroke-width="55"/>
</svg>

<?xml version="1.0" standalone="no"?>
<!DOCTYPE svg PUBLIC "-//W3C//DTD SVG 20010904//EN" "http://www.w3.org/TR/2001/REC-SVG-20010904/DTD/svg10.dtd">
<svg fill="#000" version="1.0" xmlns="http://www.w3.org/2000/svg" viewBox="0 0 1260 1260">
	<path fill="#323A46" d="M0,90 q0,-90 90,-90 l1080,0 q90,0 90,90 l0,810 q0,90 -90,90 l-810,0 L0,1260 Z" />
	<g>
		<g fill="#CD2C24">
			<path d="M0,90 q0,-90 90,-90 l90,0 l0,270 a90,90 0 1,1 -180,0 Z" />
			<path d="M360,0 l180,0 l0,270 a90,90 0 1,1 -180,0 Z" />
			<path d="M720,0 l180,0 l0,270 a90,90 0 1,1 -180,0 Z" />
			<path d="M1080,0 l90,0 q90,0 90,90 l0,180 a90,90 0 1,1 -180,0 Z" />
		</g>
		<g fill="#F5E5C0">
			<path d="M180,0 l180,0 l0,270 a90,90 0 1,1 -180,0 Z" />
			<path d="M540,0 l180,0 l0,270 a90,90 0 1,1 -180,0 Z" />
			<path d="M900,0 l180,0 l0,270 a90,90 0 1,1 -180,0 Z" />
		</g>
	</g>
	<svg viewBox="0 0 1200 400" width="1060px" x="100px" y="50px" stroke="#FFF" stroke-width="60" stroke-linecap="round"  fill="#FFF" fill-opacity="0">
		<path 
			d="
				M30,480 l0,-450
				m0,150
				a150,150 0 1,0 300,0
				a150,150 0 1,0 -300,0
			"
		/>
		<path d="
			M600,30
			m-150,150
			a150,150 0 1,0 300,0
			a150,150 0 1,0 -300,0
    " /> 
		<path d="
				M1170,70 
				c-25,-15 -75,-40 -150,-40 
				q-150,0 -150,75
				t150,75
				t150,75 
				t-150,75
				c-75,0 -125,-25 -150,-40
			" 
			/>
	</svg>
</svg>
